X:107
T:Maid in the Meadow, The
R:jig
Z:Transcribed by Dave Marshall
M:6/8
K:G
|: ~c3 ~B3|AGA BGE|DGG FGA|~B3 GAB|
~c3 ~B3|AGA BGE|DGG FGA|1 BGF GAB:|2 BGF G2D
|:GBd ~g3|ede gdB|GBd gdB|AGA BGE|
GBd ~g3|ede gdB|GAB AGA|1 BGF G2D:|2 BGF GAB|
